X:41
T:Lapp-Visa efter Nils Jansson
R:Visa
S:efter Nils Jansson
O:Västerbotten, Hallnäs
O:Degerfors, Edlunda
B:FMK - katalog Upprop19 bild 37
N:"Janssons föräldrar lärde den av lappar i sin ungdom"
L:1/8
M:C
Z:Nils L
K:Am
A | e2 AB c2 BA | cB ^GG A2>A2 | ee de f2 ed | BB cd e2>c2 | 
ee dc B2 dc | ee AA ^G2>(E2 | A)A Bd c2 BA | (PcB) ^GG A2 z2 |]

